X:1
T:2 Gesänge
T:Das Schlüsselloch im Herzen
T:2. Das Schlüsselloch im Herzen
T:Emilie Mayer
T:2 Gesänge
T:Marie Nathusius
T:Creative Commons copyright waiver (CC0 1.0 Universal)
T:Creative Commons copyright waiver (CC0 1.0 Universal)
T:Creative Commons copyright waiver (CC0 1.0 Universal)
C:Emilie Mayer
Z:Marie Nathusius
Z:Creative Commons copyright waiver (CC0 1.0 Universal)
%%score 1 2
L:1/8
Q:1/4=114
M:3/4
K:Ab
V:1 treble nm="Singstimme\nVoice"
V:2 bass nm="Pianoforte"
V:1
"^Moderato" z6 | z6 | z6 | z6 | z6 | z6 | z6 | z2 z2 c3/2 A/ | F2 E2 (3C E A | G3/2 F/ F2 F _F | %10
w: |||||||Vor mein|Herz- lein hab' ich 'ne|Tür ge- fügt, vor das|
 (E=F) E d c B | (3(cA) F E2 A3/2 B/ | c2 A2 (3=A G A | (3e d =A B2 (3B =A B | d4 (3B =A B | %15
w: Tür- * lein hab' ich ein|Schloss _ ge- legt in dem|Schlöss- lein hab' ich den|Schlüs- sel ge- dreht a- ber was|hilfts? a- ber was|
 c4 z2 | z6 | F2 G =A B c | d2 B2 z2 | F2 G =A B c | d2 B2 z2 | z A _g f e f | (e2 d2) z2 || %23
w: hilfts?||lass ich den Schlüs- sel|ste- cken,|wird's bald der Dieb ent-|de- cken,|wenn ich den Schlüs- sel|zog *|
[K:E] z F e d c d | (c2 B2) z B | e e B (c/B/) A G | (G2 F2) (dc) | (^B2 d2) z B | g2 (gf) e d | %29
w: so bleibt das Schlüs- sel-|loch, * und|ist das Löch- lein * doch so|klein * die *|Lieb' * die|zie- het * doch hin-|
 e2 z2 (dc) | (c2 B2) z B | a2 c2 c d | e2 z2 z2 | z6 | z6 | z6 | !fermata!z2 z B, E F | %37
w: ein, die *|Lieb' * die|zie- het doch hin-|ein.||||Was hilft nun|
 G A B c !fermata!d2 ||[K:Ab] z2 z _F A =A | _c c d d !fermata!=d2 | z6 | z4 (EA) | (c2 B2) =A B | %43
w: Schlüss- lein, Schlöss- lein, Tür?|Was hilft nun|Schlüss- lein, Schlöss- lein, Tür?||Mein *|Herz * bleibt  ver-|
 (B2 AB) (cd) | (e3 d) (cB) | (d2 c2) z E | e2 d2 c2 | (cB=AB) (df) | (!turn!E2 A2) (cB) | %49
w: lie- * * bet *|für * und *|für, * mein|Herz bleibt ver-|lie- * * * bet *|für * und *|
 !fermata!G4 z2 | z6 | z6 | z4 c3/2 A/ | F2 E2 (3C E A | G3/2 F/ F2 F _F | (E=F) E d c B | %56
w: für!|||Vor mein|Herz- lein hab' ich 'ne|Tür ge- fügt, vor das|Tür- * lein hab' ich ein|
 (3cA F E2 (3E A B | c4 (3c B A | d4 (3d c d | =d4 z2 | z6 | z2 z2 (Ec) | (cB) (=AB) A B | %63
w: Schloss * ge- legt, a- ber was|hilfts? a- ber was|hilfts? a- ber was|hilfts?||Mein *|Herz * blei- * bet ver-|
 d2 c2 z2 |{/c} B2 z2 (dc) | A2 z2 (Ec) | (cB) (=AB) A B | d2 c2 z2 | c4 B2 | A2 z2 z2 | z6 | z6 | %72
w: lie- bet,|für und *|für, mein *|Herz * blei- * bet ver-|lie- bet,|für und|für!|||
 z6 | z6 | z6 | z6 | z6 | z6 | z6 |] %79
w: |||||||
V:2
!p! A,,E,,A,,C,E,A, | z6 | z6 | z6 | z6 | z6 | z6 | z6 | z6 | z6 | z6 | z6 | z6 | z6 | z6 | z6 | %16
 z6 | z6 | z6 | z6 | z6 | z6 | z6 ||[K:E] z6 | z6 | z6 | z6 | z6 | z6 | z6 | z6 | z6 | z6 | z6 | %34
 z6 | z6 | z6 | z6 ||[K:Ab] z6 | z6 | z6 | z6 | z6 | z6 | z6 | z6 | z6 | z6 | z6 | z6 | z6 | z6 | %52
 z6 | z6 | z6 | z6 | z6 | z6 | z6 | z6 | z6 | z6 | z6 | z6 | z6 | z6 | z6 | z6 | z6 | z6 | z6 | %71
 z6 | z6 | z6 | z6 | z6 | z6 | z6 | z6 |] %79

